dist/svg/clock-add.svg

<!-- Generated by Trend Micro Style Portal -->
<svg version="1.1" xmlns="http://www.w3.org/2000/svg" width="16" height="16" viewBox="0 0 16 16">
  <title>clock-add</title>
  <path fill="rgb(34,34,34)" d="M13 11h3v2h-3v3h-2v-3h-3v-2h3v-3h2v3zM8 8h-4v1h5v-5h-1v4zM1.5 8c0-3.6 2.9-6.5 6.5-6.5s6.5 2.9 6.5 6.5h1.5c0-4.4-3.6-8-8-8s-8 3.6-8 8 3.6 8 8 8v-1.5c-3.6 0-6.5-2.9-6.5-6.5z"></path>
</svg>

<svg width="16" height="16" viewBox="0 0 16 16" fill="rgb(34, 34, 34)" xmlns="http://www.w3.org/2000/svg"><title>clock-add</title><path d="M13 11H16V13H13V16H11V13H8V11H11V8H13V11ZM8 8H4V9H9V4H8V8ZM1.5 8C1.5 4.4 4.4 1.5 8 1.5C11.6 1.5 14.5 4.4 14.5 8H16C16 3.6 12.4 0 8 0C3.6 0 0 3.6 0 8C0 12.4 3.6 16 8 16V14.5C4.4 14.5 1.5 11.6 1.5 8Z" fill="rgb(34, 34, 34)" fill-opacity="1.00"/></svg>
